flaticon/medical/notepad.svg

<svg xmlns="http://www.w3.org/2000/svg" width="32" height="32" viewBox="0 0 24 24">
    <path d="M6.398438 7.398438C6.398438 8.390625 7.207031 9.199219 8.199219 9.199219 9.191406 9.199219 10 8.390625 10 7.398438 10 6.40625 9.191406 5.601562 8.199219 5.601562 7.207031 5.601562 6.398438 6.40625 6.398438 7.398438zM8.199219 6.398438C8.75 6.398438 9.199219 6.847656 9.199219 7.398438 9.199219 7.953125 8.75 8.398438 8.199219 8.398438 7.648438 8.398438 7.199219 7.953125 7.199219 7.398438 7.199219 6.847656 7.648438 6.398438 8.199219 6.398438zM8.199219 10.800781C7.207031 10.800781 6.398438 11.609375 6.398438 12.601562 6.398438 13.59375 7.207031 14.398438 8.199219 14.398438 9.191406 14.398438 10 13.59375 10 12.601562 10 11.609375 9.191406 10.800781 8.199219 10.800781zM8.199219 13.601562C7.648438 13.601562 7.199219 13.152344 7.199219 12.601562 7.199219 12.046875 7.648438 11.601562 8.199219 11.601562 8.75 11.601562 9.199219 12.046875 9.199219 12.601562 9.199219 13.152344 8.75 13.601562 8.199219 13.601562zM8.199219 16C7.207031 16 6.398438 16.808594 6.398438 17.800781 6.398438 18.792969 7.207031 19.601562 8.199219 19.601562 9.191406 19.601562 10 18.792969 10 17.800781 10 16.808594 9.191406 16 8.199219 16zM8.199219 18.800781C7.648438 18.800781 7.199219 18.351562 7.199219 17.800781 7.199219 17.25 7.648438 16.800781 8.199219 16.800781 8.75 16.800781 9.199219 17.25 9.199219 17.800781 9.199219 18.351562 8.75 18.800781 8.199219 18.800781zM11.199219 7.199219L17.199219 7.199219C17.421875 7.199219 17.601562 7.019531 17.601562 6.800781 17.601562 6.578125 17.421875 6.398438 17.199219 6.398438L11.199219 6.398438C10.980469 6.398438 10.800781 6.578125 10.800781 6.800781 10.800781 7.019531 10.980469 7.199219 11.199219 7.199219zM11.199219 8.800781L17.199219 8.800781C17.421875 8.800781 17.601562 8.621094 17.601562 8.398438 17.601562 8.179688 17.421875 8 17.199219 8L11.199219 8C10.980469 8 10.800781 8.179688 10.800781 8.398438 10.800781 8.621094 10.980469 8.800781 11.199219 8.800781zM11.199219 12.398438L17.199219 12.398438C17.421875 12.398438 17.601562 12.222656 17.601562 12 17.601562 11.777344 17.421875 11.601562 17.199219 11.601562L11.199219 11.601562C10.980469 11.601562 10.800781 11.777344 10.800781 12 10.800781 12.222656 10.980469 12.398438 11.199219 12.398438zM11.199219 14L17.199219 14C17.421875 14 17.601562 13.820312 17.601562 13.601562 17.601562 13.378906 17.421875 13.199219 17.199219 13.199219L11.199219 13.199219C10.980469 13.199219 10.800781 13.378906 10.800781 13.601562 10.800781 13.820312 10.980469 14 11.199219 14zM11.199219 17.601562L17.199219 17.601562C17.421875 17.601562 17.601562 17.421875 17.601562 17.199219 17.601562 16.980469 17.421875 16.800781 17.199219 16.800781L11.199219 16.800781C10.980469 16.800781 10.800781 16.980469 10.800781 17.199219 10.800781 17.421875 10.980469 17.601562 11.199219 17.601562zM11.199219 19.199219L17.199219 19.199219C17.421875 19.199219 17.601562 19.019531 17.601562 18.800781 17.601562 18.578125 17.421875 18.398438 17.199219 18.398438L11.199219 18.398438C10.980469 18.398438 10.800781 18.578125 10.800781 18.800781 10.800781 19.019531 10.980469 19.199219 11.199219 19.199219zM11.199219 19.199219"/>
    <path d="M 20.800781 1.199219 L 17.199219 1.199219 L 17.199219 0.398438 C 17.199219 0.179688 17.019531 0 16.800781 0 L 7.601562 0 C 7.378906 0 7.199219 0.179688 7.199219 0.398438 L 7.199219 1.199219 L 3.199219 1.199219 C 2.980469 1.199219 2.800781 1.378906 2.800781 1.601562 L 2.800781 23.601562 C 2.800781 23.820312 2.980469 24 3.199219 24 L 20.800781 24 C 21.019531 24 21.199219 23.820312 21.199219 23.601562 L 21.199219 1.601562 C 21.199219 1.378906 21.019531 1.199219 20.800781 1.199219 Z M 7.601562 4.398438 L 16.800781 4.398438 C 17.019531 4.398438 17.199219 4.222656 17.199219 4 L 17.199219 3.601562 L 18.800781 3.601562 L 18.800781 21.601562 L 5.199219 21.601562 L 5.199219 3.601562 L 7.199219 3.601562 L 7.199219 4 C 7.199219 4.222656 7.378906 4.398438 7.601562 4.398438 Z M 8 0.800781 L 16.398438 0.800781 L 16.398438 3.601562 L 8 3.601562 Z M 20.398438 23.199219 L 3.601562 23.199219 L 3.601562 2 L 7.199219 2 L 7.199219 2.800781 L 4.800781 2.800781 C 4.578125 2.800781 4.398438 2.980469 4.398438 3.199219 L 4.398438 22 C 4.398438 22.222656 4.578125 22.398438 4.800781 22.398438 L 19.199219 22.398438 C 19.421875 22.398438 19.601562 22.222656 19.601562 22 L 19.601562 3.199219 C 19.601562 2.980469 19.421875 2.800781 19.199219 2.800781 L 17.199219 2.800781 L 17.199219 2 L 20.398438 2 Z M 20.398438 23.199219"/>
    <path d="M 9.199219 2.398438 L 15.199219 2.398438 C 15.421875 2.398438 15.601562 2.222656 15.601562 2 C 15.601562 1.777344 15.421875 1.601562 15.199219 1.601562 L 9.199219 1.601562 C 8.980469 1.601562 8.800781 1.777344 8.800781 2 C 8.800781 2.222656 8.980469 2.398438 9.199219 2.398438 Z M 9.199219 2.398438"/>
</svg>

<svg xmlns="http://www.w3.org/2000/svg" width="32" height="32" viewBox="0 0 24 24">
    <path d="M6.398 7.398c0 .993.809 1.801 1.801 1.801C9.191 9.2 10 8.391 10 7.4a1.8 1.8 0 0 0-3.602 0zm1.801-1A1 1 0 1 1 8.2 8.4a1 1 0 0 1 0-2zm0 0M8.2 10.8c-.993 0-1.802.81-1.802 1.802a1.8 1.8 0 0 0 3.602 0c0-.993-.809-1.801-1.8-1.801zm0 2.802a1 1 0 1 1-.001-2.001 1 1 0 0 1 0 2zm0 0M8.2 16c-.993 0-1.802.809-1.802 1.8 0 .993.809 1.802 1.801 1.802.992 0 1.801-.809 1.801-1.801C10 16.809 9.191 16 8.2 16zm0 2.8c-.552 0-1-.448-1-1 0-.55.448-1 1-1 .55 0 1 .45 1 1 0 .552-.45 1-1 1zm0 0M11.2 7.2h6a.401.401 0 1 0 0-.802h-6a.401.401 0 0 0 0 .801zm0 0M11.2 8.8h6a.401.401 0 0 0 0-.8h-6a.4.4 0 0 0 0 .8zm0 0M11.2 12.398h6a.398.398 0 1 0 0-.796h-6a.398.398 0 1 0 0 .796zm0 0M11.2 14h6a.401.401 0 1 0 0-.8h-6a.401.401 0 0 0 0 .8zm0 0M11.2 17.602h6a.401.401 0 0 0 0-.8l-6-.001a.4.4 0 0 0 0 .8zm0 0M11.2 19.2h6a.401.401 0 1 0 0-.802h-6a.401.401 0 0 0 0 .801zm0 0"/>
    <path d="M20.8 1.2h-3.6V.397A.4.4 0 0 0 16.8 0H7.603a.401.401 0 0 0-.403.398V1.2h-4a.401.401 0 0 0-.398.403v22a.4.4 0 0 0 .398.398h17.602a.4.4 0 0 0 .398-.398v-22a.401.401 0 0 0-.398-.403zM7.603 4.397H16.8A.398.398 0 0 0 17.199 4v-.398h1.602v18H5.199v-18h2V4c0 .223.18.398.403.398zM8 .801h8.398v2.8H8zm12.398 22.398H3.602V2h3.597v.8H4.801a.401.401 0 0 0-.403.4V22c0 .223.18.398.403.398h14.398a.398.398 0 0 0 .403-.398V3.2a.401.401 0 0 0-.403-.4h-2V2h3.2zm0 0"/>
    <path d="M9.2 2.398h6a.398.398 0 1 0 0-.796h-6a.398.398 0 1 0 0 .796zm0 0"/>
</svg>
